Assets/LUT17.cube
TITLE "Generated by Resolve"
LUT_3D_SIZE 17
0 0 0
0.0302434 0.00299077 0.00529488
0.0635843 0.00628672 0.0111391
0.107759 0.0108644 0.0192721
0.152834 0.016846 0.0298772
0.197894 0.0242924 0.0430915
0.242908 0.0332647 0.0589914
0.287922 0.0438239 0.0776989
0.333104 0.0559548 0.0984207
0.383154 0.0688334 0.116487
0.440192 0.0818341 0.130861
0.504295 0.0931868 0.141131
0.575586 0.101946 0.146639
0.654322 0.107103 0.146365
0.740627 0.107301 0.138781
0.831937 0.101915 0.12372
0.926314 0.0899825 0.0999771
0 0.0475624 0.0157321
0.00654612 0.0506447 0.0208591
0.0399176 0.0539559 0.0265202
0.0864729 0.0585489 0.0345312
0.136934 0.0644846 0.0447242
0.185321 0.071931 0.0576486
0.232685 0.0808881 0.0731975
0.279377 0.0913863 0.0913863
0.328832 0.102251 0.108354
0.38381 0.113146 0.12253
0.444739 0.123552 0.13341
0.512001 0.132769 0.140383
0.585946 0.140078 0.142687
0.667063 0.14435 0.139361
0.754757 0.144747 0.128664
0.845975 0.141039 0.110704
0.93962 0.13254 0.0834821
0 0.0991684 0.0330663
0 0.1019 0.0382086
0.0137789 0.104845 0.0438697
0.0601053 0.108797 0.0516823
0.115389 0.113024 0.0734569
0.169421 0.119768 0.075227
0.220142 0.126635 0.0903182
0.27158 0.13463 0.105287
0.326558 0.14345 0.118517
0.386038 0.152544 0.129396
0.45069 0.161395 0.137194
0.521141 0.169345 0.141146
0.597787 0.175753 0.1402
0.681086 0.179675 0.132815
0.769345 0.180362 0.118563
0.86067 0.177646 0.0963149
0.952956 0.171481 0.0649882
0 0.154498 0.0571756
0 0.156542 0.0623484
0 0.158755 0.0680247
0.0238804 0.161776 0.0758831
0.0845808 0.165637 0.0862593
0.148409 0.169482 0.103563
0.202472 0.176623 0.117845
0.265278 0.183368 0.119524
0.326802 0.190967 0.128435
0.391562 0.198886 0.135363
0.460792 0.206592 0.13933
0.535088 0.213581 0.13933
0.615183 0.219165 0.134081
0.700313 0.222766 0.12253
0.788647 0.22385 0.104494
0.87924 0.222156 0.077409
0.969451 0.21799 0.0451209
0 0.209903 0.0886244
0 0.211688 0.0931868
0 0.213703 0.0978256
0 0.216617 0.103685
0.0460059 0.220478 0.110445
0.125521 0.225284 0.117479
0.198215 0.229526 0.132845
0.258473 0.236881 0.151385
0.3299 0.244495 0.139269
0.402869 0.251225 0.138064
0.47718 0.258091 0.137133
0.555825 0.264302 0.13196
0.638697 0.269306 0.121553
0.724407 0.272602 0.10547
0.812451 0.273945 0.0817578
0.900771 0.273167 0.0519875
0.988602 0.270451 0.0195468
0 0.269245 0.115389
0 0.271199 0.117983
0 0.273381 0.120592
0 0.276387 0.123842
0.0170901 0.280262 0.127398
0.111833 0.284993 0.130785
0.19556 0.290349 0.1337
0.273457 0.292622 0.166888
0.337636 0.302083 0.167559
0.416449 0.309773 0.144854
0.499672 0.315633 0.129488
0.582818 0.320821 0.116411
0.666987 0.325093 0.10016
0.752636 0.328038 0.0774243
0.838422 0.329442 0.0503853
0.923934 0.329381 0.0205539
1 0.327733 0
0 0.33463 0.130434
0 0.336599 0.131395
0 0.33875 0.132265
0 0.341711 0.133165
0.00642405 0.34548 0.133745
0.116625 0.34995 0.133562
0.209583 0.355001 0.132326
0.297017 0.356771 0.153368
0.36762 0.362448 0.177859
0.438499 0.371695 0.160906
0.521874 0.378286 0.128038
0.608942 0.382727 0.0984817
0.694896 0.386023 0.0707103
0.779828 0.388281 0.0430762
0.864057 0.38938 0.0142977
0.947585 0.389364 0
1 0.388373 0
0 0.405966 0.130037
0 0.407858 0.129381
0 0.409918 0.12842
0 0.412711 0.126787
0.0301671 0.416236 0.124056
0.149111 0.420294 0.120012
0.242954 0.424704 0.11458
0.333135 0.424887 0.13463
0.407935 0.42707 0.169375
0.474952 0.43534 0.159365
0.548424 0.442771 0.128985
0.630411 0.447852 0.0885939
0.715312 0.450919 0.0497749
0.799939 0.452613 0.014847
0.883467 0.453391 0
0.965881 0.453254 0
1 0.452262 0
0 0.482399 0.108217
0 0.484016 0.105989
0 0.48574 0.103319
0 0.488045 0.099382
0.0957809 0.490837 0.0936599
0.200717 0.494011 0.0860609
0.288914 0.497215 0.0770733
0.378408 0.494163 0.107652
0.451789 0.494362 0.143526
0.515831 0.500633 0.139666
0.581735 0.507408 0.11899
0.653605 0.513054 0.0850996
0.731884 0.516869 0.0429236
0.813519 0.518975 0.00015259
0.895933 0.519707 0
0.977157 0.5196 0
1 0.518715 0
0 0.56054 0.0611276
0 0.561746 0.0576638
0 0.562951 0.0537728
0.0645151 0.564538 0.0484169
0.169604 0.56643 0.0413519
0.255985 0.568536 0.0328222
0.338643 0.569024 0.0318456
0.42356 0.563684 0.0726482
0.494224 0.562432 0.109377
0.555978 0.566796 0.111849
0.617578 0.572396 0.0979782
0.682216 0.577707 0.0730602
0.751446 0.582071 0.0383154
0.825711 0.585046 0
0.903349 0.586572 0
0.982559 0.586755 0
1 0.586297 0
0 0.637324 0.00137331
0 0.638056 0
0.0660716 0.638819 0
0.154635 0.639811 0
0.232639 0.641001 0
0.307607 0.642115 0
0.386755 0.639399 0
0.466209 0.633021 0.032166
0.533898 0.630671 0.0693065
0.59382 0.633249 0.0781567
0.652552 0.637583 0.0700084
0.712383 0.642191 0.0525521
0.775082 0.646403 0.0265049
0.841321 0.649851 0
0.91162 0.652201 0
0.984924 0.653452 0
1 0.653529 0
0.0283207 0.712154 0
0.099733 0.712596 0
0.159472 0.713024 0
0.222293 0.713588 0
0.286961 0.71429 0
0.356115 0.713314 0
0.430411 0.708751 0
0.504631 0.701976 0
0.570001 0.698589 0.0251621
0.628458 0.699519 0.0401312
0.684657 0.702647 0.0383459
0.741421 0.706386 0.0269932
0.799527 0.710109 0.00872816
0.859876 0.713542 0
0.923095 0.716335 0
0.989395 0.718318 0
1 0.719341 0
0.133715 0.785 0
0.182223 0.785183 0
0.225727 0.785428 0
0.27689 0.785687 0
0.334417 0.785336 0
0.399115 0.782589 0
0.468879 0.777035 0
0.538247 0.77023 0
0.601358 0.765972 0
0.658747 0.765393 0
0.713344 0.767193 0.00527962
0.76762 0.770047 0
0.822553 0.773175 0
0.878752 0.776257 0
0.93669 0.779095 0
0.996887 0.78146 0
1 0.783169 0
0.202197 0.855848 0
0.239597 0.855909 0
0.275898 0.85597 0
0.320714 0.855756 0
0.373938 0.85417 0
0.434333 0.850584 0
0.499565 0.844785 0
0.565454 0.837934 0
0.627329 0.832715 0
0.683909 0.830732 0
0.737469 0.831159 0
0.78996 0.833005 0
0.842618 0.835462 0
0.89572 0.838132 0
0.949828 0.840772 0
1 0.843244 0
1 0.845502 0
0.249149 0.924712 0
0.28098 0.924681 0
0.313481 0.924453 0
0.354559 0.923568 0
0.403967 0.921447 0
0.460761 0.917556 0
0.522164 0.91191 0
0.585336 0.905089 0
0.646525 0.899016 0
0.702831 0.895628 0
0.756268 0.894545 0
0.807752 0.895293 0
0.859083 0.897078 0
0.910842 0.899397 0
0.963455 0.90193 0
1 0.904509 0
1 0.906996 0
0.279545 0.991592 0
0.308675 0.991394 0
0.338125 0.990982 0
0.376806 0.989822 0
0.423636 0.987564 0
0.477241 0.983871 0
0.535882 0.978607 0
0.597482 0.972 0
0.658824 0.965408 0
0.716915 0.960586 0
0.771725 0.95816 0
0.823972 0.957824 0
0.875456 0.958846 0
0.926604 0.9608 0
0.978439 0.963119 0
1 0.965637 0
1 0.968185 0
0.302403 1 0
0.330068 1 0
0.357778 1 0
0.395041 1 0
0.439887 1 0
0.49131 1 0
0.548302 1 0
0.608972 1 0
0.67042 1 0
0.729976 1 0
0.786297 1 0
0.839704 1 0
0.891554 1 0
0.942962 1 0
0.994217 1 0
1 1 0
1 1 0
0 0 0.0578622
0.0284886 0 0.0853437
0.0671702 0.00120546 0.0931106
0.107027 0.00819409 0.0919203
0.149187 0.0155032 0.0993515
0.19443 0.0230259 0.110857
0.23978 0.0319982 0.123659
0.285084 0.0425422 0.13753
0.330694 0.0546273 0.152163
0.381445 0.0674601 0.165393
0.439002 0.0802472 0.176104
0.503594 0.0919661 0.183597
0.575326 0.100816 0.187167
0.654414 0.10605 0.18584
0.741115 0.106157 0.178241
0.83241 0.100923 0.164584
0.926726 0.0890211 0.144244
0 0.0459449 0.0868391
0.00225834 0.0489662 0.0921645
0.0352941 0.0522774 0.0983139
0.0856336 0.0549172 0.11371
0.133593 0.0627451 0.114214
0.181476 0.0705577 0.124239
0.229114 0.0795605 0.13608
0.276219 0.0901045 0.14902
0.32636 0.101091 0.161456
0.381964 0.112093 0.172122
0.443412 0.122576 0.180346
0.511208 0.131838 0.185443
0.585595 0.139208 0.186587
0.666972 0.143618 0.18265
0.754833 0.144137 0.172686
0.84625 0.140383 0.157031
0.939773 0.131975 0.134783
0 0.0975357 0.104082
0 0.100267 0.108644
0.00962844 0.103212 0.113512
0.0559091 0.107179 0.120012
0.1131 0.112139 0.129595
0.166339 0.118441 0.137728
0.216983 0.125521 0.148653
0.269062 0.133654 0.159548
0.324605 0.14258 0.169375
0.384665 0.151736 0.177508
0.44979 0.160678 0.183291
0.520653 0.168688 0.185885
0.597681 0.175113 0.184482
0.681376 0.179065 0.177661
0.769711 0.179782 0.165576
0.861036 0.177127 0.14757
0.953094 0.17116 0.12372
0 0.153185 0.124483
0 0.15523 0.128496
0 0.157443 0.132799
0.0197757 0.160479 0.138613
0.0802472 0.164355 0.145922
0.144411 0.16936 0.154055
0.204303 0.175433 0.162234
0.264179 0.182467 0.170062
0.325948 0.190188 0.176822
0.39115 0.198184 0.181888
0.460655 0.205997 0.184543
0.535241 0.213062 0.183886
0.615549 0.218738 0.178882
0.700816 0.22237 0.168917
0.789197 0.223514 0.15404
0.879728 0.221866 0.133394
0.969802 0.217762 0.107286
0 0.208881 0.147555
0 0.210697 0.150774
0 0.212772 0.154147
0 0.215702 0.158404
0.0426947 0.219623 0.163424
0.123293 0.224521 0.168704
0.195117 0.230259 0.17377
0.260365 0.236881 0.185672
0.332158 0.243641 0.181659
0.403174 0.250736 0.183124
0.477577 0.25771 0.181949
0.556481 0.263996 0.177111
0.639353 0.269062 0.168093
0.725216 0.272297 0.154833
0.81326 0.273671 0.136355
0.901396 0.272999 0.113054
0.988952 0.270481 0.0834821
0 0.268666 0.166979
0 0.270649 0.168902
0 0.272847 0.170809
0 0.275868 0.17322
0.0146944 0.279759 0.175875
0.110292 0.28455 0.178393
0.194812 0.290013 0.180301
0.273671 0.293462 0.200336
0.339956 0.302464 0.200259
0.421088 0.309194 0.18172
0.50251 0.315099 0.17261
0.584161 0.320562 0.163302
0.668055 0.324865 0.150454
0.75346 0.327947 0.133165
0.839185 0.329351 0.111604
0.924743 0.329229 0.0844129
1 0.327703 0.0513924
0 0.334386 0.177813
0 0.33637 0.17847
0 0.338537 0.17908
0 0.341482 0.179614
0.00514229 0.345266 0.179919
0.116121 0.349813 0.179492
0.209628 0.354925 0.178042
0.295354 0.358831 0.18439
0.368948 0.363256 0.213931
0.442039 0.372229 0.19469
0.527535 0.378042 0.165896
0.613825 0.382254 0.144656
0.698619 0.385611 0.125032
0.782559 0.387915 0.103319
0.865843 0.389181 0.0767071
0.948608 0.389349 0.0464485
1 0.388327 0.0144198
0 0.405966 0.176181
0 0.407858 0.175555
0 0.409949 0.174655
0 0.412741 0.173175
0.030396 0.416281 0.170809
0.149538 0.420386 0.167285
0.243549 0.424781 0.16257
0.331365 0.427268 0.168658
0.40943 0.428122 0.209018
0.476875 0.436393 0.200778
0.552789 0.443534 0.170611
0.637003 0.447913 0.133867
0.722057 0.450462 0.101045
0.80557 0.45211 0.0692302
0.888167 0.452842 0.0381781
0.969558 0.452827 0.00679026
1 0.451926 0
0 0.482521 0.157534
0 0.484138 0.155718
0 0.485863 0.153567
0 0.488167 0.150378
0.0971237 0.49099 0.1458
0.201572 0.494194 0.139803
0.289326 0.497597 0.132357
0.376623 0.497047 0.147082
0.453452 0.49572 0.190295
0.517586 0.5019 0.18883
0.584253 0.508598 0.16701
0.658 0.513909 0.130114
0.738094 0.517174 0.0875715
0.820386 0.518776 0.0468147
0.902144 0.519356 0.00958267
0.982803 0.519173 0
1 0.518227 0
0 0.560708 0.120867
0 0.561868 0.118074
0 0.563119 0.114839
0.0661479 0.564721 0.110201
0.170764 0.566629 0.104067
0.256794 0.568765 0.0962387
0.337072 0.570672 0.0881971
0.422004 0.566735 0.114717
0.495567 0.564019 0.156664
0.557671 0.568063 0.160876
0.619257 0.573678 0.146365
0.684611 0.578882 0.119753
0.755184 0.583017 0.082948
0.831113 0.585534 0.0401617
0.90959 0.586679 0
0.9888 0.586694 0
1 0.585916 0
0 0.637461 0.0647746
0 0.638209 0.0610971
0.0677653 0.639017 0.057084
0.155978 0.639979 0.051545
0.233661 0.641199 0.044358
0.308095 0.642542 0.0356451
0.384512 0.641779 0.0366522
0.464927 0.63592 0.0733349
0.535042 0.632349 0.115023
0.595468 0.634485 0.126177
0.654124 0.638804 0.118044
0.714061 0.643412 0.0999008
0.777234 0.647562 0.0725872
0.844541 0.650828 0.0375982
0.916106 0.652903 0
0.990295 0.653819 0
1 0.653651 0
0.0299077 0.712337 0
0.101808 0.712749 0
0.160967 0.713191 0
0.223377 0.713756 0
0.287846 0.714458 0
0.355062 0.714672 0
0.428183 0.711376 0
0.50341 0.704784 0.0274662
0.570855 0.700359 0.0697032
0.629862 0.700816 0.0871595
0.68629 0.703807 0.0860456
0.742885 0.707546 0.0744945
0.801053 0.711315 0.0556191
0.861936 0.714641 0.0297246
0.925826 0.717342 0
0.993301 0.719066 0
1 0.719905 0
0.135378 0.785138 0
0.183322 0.785351 0
0.226841 0.785565 0
0.278019 0.785809 0
0.334264 0.786053 0
0.39707 0.784497 0
0.465934 0.77998 0
0.536843 0.773053 0
0.601938 0.767865 0.021912
0.660014 0.766766 0.0458228
0.714778 0.768353 0.052491
0.768902 0.771221 0.0473335
0.823941 0.774334 0.0357061
0.880201 0.777417 0.0181888
0.938476 0.780209 0
0.999237 0.782498 0
1 0.78407 0
0.203311 0.855955 0
0.240909 0.855985 0
0.276677 0.856077 0
0.32108 0.856138 0
0.372717 0.855406 0
0.431998 0.852705 0
0.49691 0.847654 0
0.563943 0.840742 0
0.627176 0.834897 0
0.684871 0.832242 0.00366217
0.738735 0.832395 0.0184787
0.791241 0.834134 0.0213474
0.843778 0.836606 0.0161898
0.896941 0.839246 0.00602731
0.951064 0.841932 0
1 0.844358 0
1 0.846479 0
0.249866 0.924804 0
0.281651 0.924758 0
0.313527 0.924697 0
0.353765 0.924376 0
0.402335 0.922911 0
0.458259 0.919768 0
0.518944 0.914824 0
0.582971 0.908064 0
0.645624 0.901473 0
0.703426 0.897322 0
0.757244 0.895918 0
0.809003 0.896468 0
0.860288 0.898192 0
0.911986 0.900511 0
0.964675 0.903059 0
1 0.905638 0
1 0.90811 0
0.2804 0.991608 0
0.309071 0.991485 0
0.338201 0.991333 0
0.375799 0.990723 0
0.4215 0.989105 0
0.474434 0.986038 0
0.532921 0.981308 0
0.594842 0.97499 0
0.657282 0.968124 0
0.716747 0.962661 0
0.772183 0.959777 0
0.825071 0.959091 0
0.876616 0.959991 0
0.927916 0.961852 0
0.979599 0.964233 0
1 0.96672 0
1 0.969299 0
0.303441 1 0
0.330053 1 0
0.35761 1 0
0.393988 1 0
0.437736 1 0
0.488731 1 0
0.545541 1 0
0.606149 1 0
0.668467 1 0
0.729458 1 0
0.786572 1 0
0.840635 1 0
0.892653 1 0
0.943984 1 0
0.995315 1 0
1 1 0
1 1 0
0 0 0.137057
0.0217441 0 0.1523
0.0602579 0 0.165408
0.11342 0.00135805 0.173373
0.160708 0.00796521 0.172503
0.198245 0.019028 0.170214
0.239063 0.0298161 0.176349
0.28304 0.0408637 0.186679
0.328862 0.0529641 0.198611
0.380163 0.0657511 0.209445
0.438117 0.0785382 0.218235
0.502983 0.0904707 0.224323
0.57499 0.0994583 0.227008
0.654307 0.104875 0.225376
0.741176 0.105104 0.218387
0.832593 0.099733 0.206256
0.926757 0.0881208 0.188876
0 0.0445563 0.146807
0 0.0475166 0.151659
0.0297856 0.0506447 0.158785
0.0782788 0.0534066 0.175616
0.139879 0.05626 0.187152
0.187671 0.0653239 0.184726
0.22826 0.0773022 0.186603
0.273976 0.0885481 0.196155
0.324636 0.0996872 0.206317
0.380606 0.110872 0.215076
0.44242 0.121508 0.22182
0.510552 0.130892 0.225895
0.585275 0.138308 0.226474
0.667033 0.142718 0.222599
0.755093 0.143252 0.21355
0.846448 0.139681 0.199832
0.939895 0.131319 0.181094
0 0.0960861 0.160555
0 0.0988174 0.164157
0.00471504 0.101762 0.168017
0.0509804 0.105745 0.173205
0.108629 0.110491 0.184344
0.170489 0.113619 0.199832
0.216709 0.123415 0.197635
0.266941 0.132555 0.204868
0.322881 0.141649 0.21297
0.383276 0.150958 0.219684
0.448875 0.15996 0.224323
0.520119 0.168063 0.2262
0.597513 0.174578 0.224506
0.681498 0.17847 0.218173
0.769879 0.179339 0.207385
0.86125 0.176761 0.191882
0.953231 0.170733 0.172183
0 0.151995 0.176959
0 0.15404 0.180179
0 0.156268 0.183627
0.0149691 0.159289 0.188342
0.0755779 0.163195 0.194278
0.141451 0.168276 0.200855
0.205829 0.172961 0.212222
0.262119 0.181827 0.21384
0.324376 0.189654 0.219425
0.390127 0.197696 0.223468
0.460151 0.205524 0.22533
0.535134 0.21265 0.224308
0.615839 0.218326 0.219455
0.701305 0.221958 0.210437
0.789822 0.223072 0.197406
0.880201 0.221576 0.180041
0.970092 0.217609 0.159136
0 0.20795 0.195712
0 0.209812 0.198322
0 0.211902 0.201038
0 0.214893 0.204486
0.0390478 0.21883 0.208545
0.120912 0.223774 0.212879
0.193713 0.229603 0.217105
0.262791 0.236103 0.220615
0.331914 0.243122 0.223163
0.403143 0.250355 0.224063
0.477867 0.257404 0.222568
0.557092 0.263676 0.217914
0.640116 0.268757 0.209751
0.725902 0.272129 0.198108
0.813947 0.273487 0.182483
0.902052 0.272801 0.163546
0.989471 0.270344 0.140932
0 0.268162 0.211429
0 0.270146 0.21294
0 0.272358 0.214511
0 0.275395 0.216434
0.0119631 0.279316 0.218555
0.108797 0.284108 0.220584
0.194064 0.289662 0.222034
0.272572 0.294835 0.227848
0.343557 0.302449 0.229145
0.423865 0.30869 0.219226
0.503578 0.3149 0.213535
0.585199 0.320378 0.205478
0.668956 0.324788 0.194293
0.754452 0.327779 0.179751
0.84004 0.329244 0.162341
0.925429 0.329168 0.141558
1 0.327611 0.116503
0 0.334188 0.219867
0 0.336187 0.22034
0 0.338338 0.220783
0 0.341299 0.221149
0.00384527 0.345098 0.221256
0.115648 0.34966 0.220783
0.209689 0.354849 0.219226
0.293843 0.360204 0.217456
0.370214 0.364004 0.246204
0.446204 0.372488 0.224369
0.532265 0.377661 0.201923
0.617182 0.381872 0.186725
0.700694 0.385382 0.172
0.783627 0.3879 0.155505
0.866682 0.389166 0.135927
0.949325 0.389334 0.112367
1 0.388327 0.0834058
0 0.406027 0.217517
0 0.407935 0.216861
0 0.409995 0.216083
0 0.412787 0.214694
0.0305333 0.416342 0.212543
0.150332 0.420462 0.209354
0.24416 0.424918 0.205081
0.330022 0.428931 0.202853
0.410971 0.429084 0.243305
0.478859 0.437339 0.235447
0.557565 0.443915 0.204578
0.643061 0.447608 0.173693
0.727382 0.450019 0.149447
0.810147 0.451621 0.126696
0.891722 0.452445 0.102022
0.972305 0.452491 0.0728618
1 0.451713 0.0415503
0 0.482719 0.200732
0 0.484321 0.19913
0 0.486015 0.197314
0 0.488334 0.194553
0.0981918 0.491203 0.1906
0.202518 0.494423 0.185428
0.290181 0.497826 0.179187
0.374884 0.499336 0.182437
0.454902 0.496986 0.22855
0.519219 0.503029 0.230533
0.586877 0.509697 0.210178
0.663249 0.51458 0.174868
0.745235 0.51722 0.136736
0.827451 0.518456 0.10132
0.908476 0.518853 0.0670634
0.988266 0.518624 0.0344091
1 0.517693 0.00242618
0 0.560861 0.170031
0 0.562036 0.167742
0 0.563272 0.165133
0.0682689 0.564904 0.161395
0.172061 0.566842 0.156481
0.257847 0.568978 0.150393
0.337438 0.571267 0.142885
0.419776 0.569741 0.155947
0.496925 0.565728 0.203387
0.55938 0.569421 0.212573
0.621332 0.575006 0.19913
0.687449 0.580163 0.170626
0.760052 0.583871 0.131518
0.837583 0.585885 0.0885023
0.916808 0.586572 0.0471962
0.995621 0.586389 0.00958267
1 0.585458 0
0 0.637613 0.127306
0 0.638376 0.124407
0.0703593 0.639185 0.121172
0.157076 0.640223 0.116564
0.234852 0.641413 0.110674
0.309056 0.642741 0.103105
0.382864 0.64361 0.0964218
0.46247 0.639384 0.11928
0.536126 0.634318 0.164752
0.597162 0.63592 0.179004
0.655833 0.640162 0.171099
0.716075 0.644694 0.151949
0.77995 0.648783 0.123018
0.848539 0.65182 0.0860761
0.921492 0.653529 0.0445411
0.996887 0.654032 0.00274662
1 0.653513 0
0.0328832 0.712459 0.0672618
0.104005 0.712901 0.0636606
0.162844 0.713344 0.0597848
0.224567 0.713939 0.0545357
0.288975 0.714626 0.047715
0.354864 0.715404 0.0393988
0.425513 0.713954 0.0412146
0.501213 0.708141 0.072282
0.571405 0.70251 0.117632
0.631357 0.702312 0.138781
0.687861 0.705119 0.138613
0.744518 0.708858 0.126818
0.802945 0.712566 0.10721
0.86421 0.715892 0.0801099
0.929229 0.718364 0.0466011
0.997833 0.719875 0.00869764
1 0.720378 0
0.137331 0.78526 0
0.184634 0.785504 0
0.22797 0.785718 0
0.278904 0.785977 0
0.33489 0.786313 0
0.395575 0.786023 0
0.463294 0.782727 0
0.534508 0.776364 0.0231632
0.601831 0.770291 0.0682383
0.661143 0.768383 0.0961318
0.716258 0.769711 0.104356
0.770413 0.772503 0.0996567
0.825254 0.775647 0.0876783
0.88188 0.778653 0.0697185
0.94049 0.78146 0.0458839
1 0.783597 0.0170596
1 0.78497 0
0.203906 0.856123 0
0.241749 0.856138 0
0.277714 0.856214 0
0.321813 0.85626 0
0.372274 0.856229 0
0.429694 0.854658 0
0.493675 0.850584 0
0.561334 0.844053 0
0.626642 0.837491 0.0182498
0.685618 0.834043 0.0525826
0.740108 0.833783 0.069749
0.79263 0.835416 0.0734722
0.845396 0.837766 0.0673381
0.898268 0.840513 0.0581521
0.952667 0.843137 0.0434119
1 0.845579 0.023209
1 0.847654 0
0.251026 0.924849 0
0.28246 0.924849 0
0.314336 0.924773 0
0.353918 0.924681 0
0.401129 0.924056 0
0.455482 0.921859 0
0.516152 0.917586 0
0.580224 0.911315 0
0.644526 0.904265 0
0.703639 0.899397 0.00924697
0.758099 0.897505 0.0356451
0.810285 0.89778 0.0487068
0.861646 0.899413 0.0512398
0.913314 0.901732 0.0462654
0.966049 0.904265 0.0363165
1 0.906859 0.0212863
1 0.909346 0.00128176
0.280812 0.991684 0
0.30959 0.991547 0
0.338689 0.991409 0
0.375463 0.991196 0
0.420111 0.990295 0
0.472023 0.987991 0
0.529732 0.984024 0
0.591699 0.97821 0
0.655238 0.971222 0
0.716197 0.965118 0
0.772976 0.961517 0
0.826169 0.960525 0.0188754
0.877852 0.961288 0.0280766
0.929152 0.963104 0.0284123
0.980987 0.965423 0.0223239
1 0.967956 0.0115511
1 0.970504 0
0.303578 1 0
0.330663 1 0
0.357946 1 0
0.393271 1 0
0.43621 1 0
0.486091 1 0
0.542443 1 0
0.602609 1 0
0.665782 1 0
0.727871 1 0
0.786648 1 0
0.841459 1 0
0.893843 1 0
0.945373 1 0.00421149
0.996719 1 0.00244144
1 1 0
1 1 0
0 0 0.204166
0.0138094 0 0.217517
0.0508736 0 0.23183
0.104967 0 0.244923
0.161334 0.00239567 0.251728
0.211429 0.00946059 0.252415
0.251774 0.0213779 0.247898
0.288853 0.0354925 0.246983
0.3299 0.0495766 0.252262
0.379294 0.0633097 0.25948
0.437476 0.0762798 0.266499
0.502739 0.0884108 0.271382
0.575036 0.0976577 0.273304
0.654688 0.10309 0.271489
0.741726 0.103456 0.264942
0.833066 0.0982986 0.254215
0.927184 0.0865187 0.23917
0 0.0428016 0.208316
0 0.045655 0.213596
0.0224155 0.0485847 0.221164
0.0701305 0.0515145 0.236942
0.13254 0.0538186 0.25452
0.191562 0.0587015 0.261616
0.241337 0.0682536 0.260334
0.280308 0.0829938 0.255772
0.324971 0.0969558 0.258
0.379614 0.109056 0.264027
0.441825 0.119921 0.269505
0.510246 0.129534 0.272648
0.585306 0.137087 0.27277
0.667338 0.141619 0.268986
0.755428 0.142306 0.260838
0.846876 0.138766 0.248722
