Assets/LUT17.cube
TITLE "Generated by Resolve"
LUT_3D_SIZE 5
0 0 0
0.152834 0.016846 0.0298772
0.333104 0.0559548 0.0984207
0.575586 0.101946 0.146639
0.926314 0.0899825 0.0999771
0 0.209903 0.0886244
0.0460059 0.220478 0.110445
0.3299 0.244495 0.139269
0.638697 0.269306 0.121553
0.988602 0.270451 0.0195468
0 0.482399 0.108217
0.0957809 0.490837 0.0936599
0.451789 0.494362 0.143526
0.731884 0.516869 0.0429236
1 0.518715 0
0.133715 0.785 0
0.334417 0.785336 0
0.601358 0.765972 0
0.822553 0.773175 0
1 0.783169 0
0.302403 1 0
0.439887 1 0
0.67042 1 0
0.891554 1 0
1 1 0
0 0 0.270985
0.152819 0 0.324041
0.342931 0.0406348 0.322286
0.575845 0.0950637 0.324163
0.928038 0.0846723 0.293141
0 0.205539 0.305058
0.0269322 0.216892 0.313848
0.33576 0.240101 0.327352
0.641596 0.268315 0.310506
0.990784 0.270115 0.26099
0 0.483482 0.303517
0.103044 0.491875 0.295842
0.458259 0.500389 0.31162
0.759899 0.516548 0.244663
1 0.517235 0.179355
0.143084 0.785657 0.181094
0.337682 0.786786 0.17023
0.598566 0.778958 0.201938
0.830076 0.77969 0.25333
1 0.787091 0.137697
0.305364 1 0.00712596
0.436011 1 0
0.655558 1 0.019852
0.897536 1 0.161028
1 1 0.151141
0 0 0.535073
0.0918898 0 0.590784
0.353307 0.00985733 0.635813
0.617929 0.0666667 0.577996
0.939483 0.0715496 0.523674
0 0.199619 0.542489
0 0.21239 0.547784
0.341024 0.231205 0.600824
0.6551 0.265797 0.538735
0.995605 0.270191 0.505928
0 0.487282 0.534173
0.121111 0.495064 0.528954
0.464836 0.507713 0.516121
0.772641 0.517555 0.494041
1 0.518807 0.464714
0.163134 0.787228 0.465217
0.348486 0.788388 0.460258
0.593317 0.789593 0.4495
0.840314 0.78677 0.508034
1 0.786755 0.426261
0.312734 1 0.408042
0.440726 1 0.405188
0.647425 1 0.398978
0.901671 1 0.482109
1 1 0.520394
0 0 0.79472
0 0 0.838651
0.332769 0 0.920272
0.68751 0.0231022 0.905257
0.981201 0.0474861 0.776455
0 0.195163 0.786587
0 0.209781 0.793149
0.346639 0.22887 0.861708
0.733852 0.239887 0.852613
1 0.268528 0.7514
0 0.494453 0.773754
0.151843 0.501259 0.769772
0.480934 0.511604 0.771618
0.79411 0.517494 0.751553
1 0.522713 0.724895
0.193301 0.78999 0.72575
0.366293 0.790799 0.722881
0.603952 0.79176 0.716564
0.861555 0.791287 0.709575
1 0.787488 0.697673
0.325246 1 0.69163
0.449928 1 0.689952
0.652979 1 0.685908
0.894011 1 0.68542
1 1 0.745769
0 0 1
0 0 1
0.327962 0 1
0.731975 0 1
1 0.00332647 1
0 0.197635 1
0 0.213367 1
0.373053 0.230259 1
0.773938 0.231952 1
1 0.24715 1
0 0.504387 1
0.196506 0.509896 1
0.505211 0.516075 1
0.845426 0.504265 1
1 0.520928 0.987945
0.23003 0.793942 0.980453
0.388434 0.794476 0.978408
0.617426 0.794827 0.974151
0.880903 0.787411 0.998917
1 0.791074 0.961425
0.341894 1 0.957443
0.462928 1 0.956436
0.662226 1 0.95407
0.897856 1 0.949722
1 1 0.94641
