Assets/LUT17.cube
TITLE "Generated by Resolve"
LUT_3D_SIZE 9
0 0 0
0.0635843 0.00628672 0.0111391
0.152834 0.016846 0.0298772
0.242908 0.0332647 0.0589914
0.333104 0.0559548 0.0984207
0.440192 0.0818341 0.130861
0.575586 0.101946 0.146639
0.740627 0.107301 0.138781
0.926314 0.0899825 0.0999771
0 0.0991684 0.0330663
0.0137789 0.104845 0.0438697
0.115389 0.113024 0.0734569
0.220142 0.126635 0.0903182
0.326558 0.14345 0.118517
0.45069 0.161395 0.137194
0.597787 0.175753 0.1402
0.769345 0.180362 0.118563
0.952956 0.171481 0.0649882
0 0.209903 0.0886244
0 0.213703 0.0978256
0.0460059 0.220478 0.110445
0.198215 0.229526 0.132845
0.3299 0.244495 0.139269
0.47718 0.258091 0.137133
0.638697 0.269306 0.121553
0.812451 0.273945 0.0817578
0.988602 0.270451 0.0195468
0 0.33463 0.130434
0 0.33875 0.132265
0.00642405 0.34548 0.133745
0.209583 0.355001 0.132326
0.36762 0.362448 0.177859
0.521874 0.378286 0.128038
0.694896 0.386023 0.0707103
0.864057 0.38938 0.0142977
1 0.388373 0
0 0.482399 0.108217
0 0.48574 0.103319
0.0957809 0.490837 0.0936599
0.288914 0.497215 0.0770733
0.451789 0.494362 0.143526
0.581735 0.507408 0.11899
0.731884 0.516869 0.0429236
0.895933 0.519707 0
1 0.518715 0
0 0.637324 0.00137331
0.0660716 0.638819 0
0.232639 0.641001 0
0.386755 0.639399 0
0.533898 0.630671 0.0693065
0.652552 0.637583 0.0700084
0.775082 0.646403 0.0265049
0.91162 0.652201 0
1 0.653529 0
0.133715 0.785 0
0.225727 0.785428 0
0.334417 0.785336 0
0.468879 0.777035 0
0.601358 0.765972 0
0.713344 0.767193 0.00527962
0.822553 0.773175 0
0.93669 0.779095 0
1 0.783169 0
0.249149 0.924712 0
0.313481 0.924453 0
0.403967 0.921447 0
0.522164 0.91191 0
0.646525 0.899016 0
0.756268 0.894545 0
0.859083 0.897078 0
0.963455 0.90193 0
1 0.906996 0
0.302403 1 0
0.357778 1 0
0.439887 1 0
0.548302 1 0
0.67042 1 0
0.786297 1 0
0.891554 1 0
0.994217 1 0
1 1 0
0 0 0.137057
0.0602579 0 0.165408
0.160708 0.00796521 0.172503
0.239063 0.0298161 0.176349
0.328862 0.0529641 0.198611
0.438117 0.0785382 0.218235
0.57499 0.0994583 0.227008
0.741176 0.105104 0.218387
0.926757 0.0881208 0.188876
0 0.0960861 0.160555
0.00471504 0.101762 0.168017
0.108629 0.110491 0.184344
0.216709 0.123415 0.197635
0.322881 0.141649 0.21297
0.448875 0.15996 0.224323
0.597513 0.174578 0.224506
0.769879 0.179339 0.207385
0.953231 0.170733 0.172183
0 0.20795 0.195712
0 0.211902 0.201038
0.0390478 0.21883 0.208545
0.193713 0.229603 0.217105
0.331914 0.243122 0.223163
0.477867 0.257404 0.222568
0.640116 0.268757 0.209751
0.813947 0.273487 0.182483
0.989471 0.270344 0.140932
0 0.334188 0.219867
0 0.338338 0.220783
0.00384527 0.345098 0.221256
0.209689 0.354849 0.219226
0.370214 0.364004 0.246204
0.532265 0.377661 0.201923
0.700694 0.385382 0.172
0.866682 0.389166 0.135927
1 0.388327 0.0834058
0 0.482719 0.200732
0 0.486015 0.197314
0.0981918 0.491203 0.1906
0.290181 0.497826 0.179187
0.454902 0.496986 0.22855
0.586877 0.509697 0.210178
0.745235 0.51722 0.136736
0.908476 0.518853 0.0670634
1 0.517693 0.00242618
0 0.637613 0.127306
0.0703593 0.639185 0.121172
0.234852 0.641413 0.110674
0.382864 0.64361 0.0964218
0.536126 0.634318 0.164752
0.655833 0.640162 0.171099
0.77995 0.648783 0.123018
0.921492 0.653529 0.0445411
1 0.653513 0
0.137331 0.78526 0
0.22797 0.785718 0
0.33489 0.786313 0
0.463294 0.782727 0
0.601831 0.770291 0.0682383
0.716258 0.769711 0.104356
0.825254 0.775647 0.0876783
0.94049 0.78146 0.0458839
1 0.78497 0
0.251026 0.924849 0
0.314336 0.924773 0
0.401129 0.924056 0
0.516152 0.917586 0
0.644526 0.904265 0
0.758099 0.897505 0.0356451
0.861646 0.899413 0.0512398
0.966049 0.904265 0.0363165
1 0.909346 0.00128176
0.303578 1 0
0.357946 1 0
0.43621 1 0
0.542443 1 0
0.665782 1 0
0.786648 1 0
0.893843 1 0
0.996719 1 0.00244144
1 1 0
0 0 0.270985
0.0399786 0 0.296651
0.152819 0 0.324041
0.260502 0.0123903 0.331533
0.342931 0.0406348 0.322286
0.438911 0.072755 0.320058
0.575845 0.0950637 0.324163
0.742931 0.101289 0.315953
0.928038 0.0846723 0.293141
0 0.0920424 0.279179
0 0.0977188 0.285252
0.0937819 0.106096 0.304021
0.219638 0.113237 0.338582
0.335103 0.132479 0.330205
0.448325 0.157443 0.323079
0.598215 0.172656 0.321889
0.771115 0.177859 0.30779
0.954223 0.169406 0.281758
0 0.205539 0.305058
0 0.209689 0.308705
0.0269322 0.216892 0.313848
0.188998 0.228 0.320394
0.33576 0.240101 0.327352
0.477897 0.256886 0.32137
0.641596 0.268315 0.310506
0.815717 0.273121 0.28954
0.990784 0.270115 0.26099
0 0.333913 0.320958
0 0.338125 0.321309
0 0.34493 0.321202
0.210468 0.354742 0.319188
0.374044 0.365957 0.323766
0.538735 0.377218 0.300496
0.703685 0.385428 0.281819
0.869047 0.389258 0.25745
1 0.388495 0.2271
0 0.483482 0.303517
0 0.486717 0.300832
0.103044 0.491875 0.295842
0.293278 0.498527 0.287205
0.458259 0.500389 0.31162
0.595392 0.511833 0.297017
0.759899 0.516548 0.244663
0.91899 0.517937 0.212024
1 0.517235 0.179355
0 0.638209 0.252277
0.0779583 0.639765 0.248432
0.23859 0.642069 0.241993
0.384497 0.644846 0.232136
0.536629 0.640177 0.26862
0.660319 0.643626 0.300603
0.789578 0.651835 0.25655
0.941024 0.654047 0.18822
1 0.652308 0.133028
0.143084 0.785657 0.181094
0.231815 0.78616 0.177005
0.337682 0.786786 0.17023
0.458732 0.787457 0.159899
0.598566 0.778958 0.201938
0.720913 0.773877 0.264973
0.830076 0.77969 0.25333
0.948577 0.785138 0.206088
1 0.787091 0.137697
0.253437 0.925124 0.0932937
0.316686 0.925017 0.08925
0.402213 0.924788 0.0822766
0.508217 0.923888 0.0738994
0.636454 0.914565 0.110796
0.760647 0.902983 0.193713
0.865766 0.903426 0.21886
0.970321 0.908232 0.203647
1 0.913115 0.164096
0.305364 1 0.00712596
0.359655 1 0.00393683
0.436011 1 0
0.53489 1 0
0.655558 1 0.019852
0.784649 1 0.100328
0.897536 1 0.161028
1 1 0.170306
1 1 0.151141
0 0 0.403647
0.0127108 0 0.425361
0.127749 0 0.461189
0.248051 0.00299077 0.481285
0.360906 0.0214694 0.486824
0.468284 0.0535897 0.461738
0.583307 0.0868849 0.435981
0.747997 0.0951705 0.425345
0.932204 0.078645 0.406561
0 0.0862135 0.402472
0 0.0918898 0.409354
0.0684215 0.100145 0.428641
0.203952 0.107988 0.469322
0.345251 0.119905 0.483619
0.470817 0.145373 0.453239
0.602564 0.16939 0.431159
0.775265 0.175265 0.418753
0.956756 0.167727 0.398337
0 0.202655 0.422232
0 0.20708 0.424979
0.00898756 0.214633 0.428717
0.181476 0.225925 0.438911
0.343221 0.233234 0.469566
0.485801 0.254139 0.434272
0.644739 0.267887 0.421576
0.818311 0.272892 0.405005
0.992203 0.270207 0.383597
0 0.334066 0.433188
0 0.338338 0.433219
0 0.345235 0.43267
0.211841 0.355154 0.43032
0.381399 0.365606 0.43299
0.542107 0.377981 0.414588
0.707057 0.385931 0.399878
0.871962 0.389639 0.381384
1 0.389029 0.35964
0 0.484947 0.416785
0 0.488121 0.414588
0.110521 0.493095 0.410666
0.298848 0.499535 0.40412
0.458946 0.506004 0.396368
0.610437 0.512688 0.38732
0.768292 0.516487 0.366598
0.922576 0.518349 0.34847
1 0.517769 0.327932
0 0.639231 0.377264
0.0898299 0.640742 0.374609
0.24506 0.64303 0.369924
0.389181 0.645792 0.362768
0.534447 0.646906 0.362478
0.665507 0.646937 0.40972
0.80322 0.653605 0.361837
0.957244 0.653452 0.318608
1 0.651499 0.293843
0.151278 0.786358 0.329061
0.23827 0.786831 0.326421
0.342077 0.787503 0.322179
0.462013 0.78819 0.315892
0.593072 0.786633 0.318715
0.725261 0.777829 0.395789
0.835081 0.783429 0.394736
0.960189 0.788113 0.350378
1 0.787427 0.296696
0.258244 0.925444 0.282078
0.320119 0.925414 0.28011
0.404501 0.925231 0.277043
0.509316 0.924819 0.272602
0.627512 0.922789 0.27306
0.760235 0.910582 0.344564
0.870558 0.907774 0.396307
0.97557 0.912795 0.389807
1 0.917357 0.352499
0.308354 1 0.245136
0.362264 1 0.243519
0.438224 1 0.240894
0.535134 1 0.23682
0.646265 1 0.232883
0.77557 1 0.272786
0.901045 1 0.360143
1 1 0.388846
1 1 0.377844
0 0 0.535073
0 0 0.553582
0.0918898 0 0.590784
0.224689 0 0.62266
0.353307 0.00985733 0.635813
0.493431 0.032578 0.62742
0.617929 0.0666667 0.577996
0.759793 0.0857862 0.541863
0.939483 0.0715496 0.523674
0 0.0779278 0.528725
0 0.0838636 0.536049
0.0338293 0.0923629 0.554681
0.186007 0.1019 0.597482
0.338399 0.113268 0.62388
0.497902 0.128893 0.6159
0.627955 0.158495 0.560311
0.783352 0.171618 0.534249
0.962493 0.165011 0.517189
0 0.199619 0.542489
0 0.204379 0.544564
0 0.21239 0.547784
0.172702 0.223804 0.563012
0.341024 0.231205 0.600824
0.520577 0.240116 0.591714
0.6551 0.265797 0.538735
0.823926 0.272419 0.522927
0.995605 0.270191 0.505928
0 0.33489 0.549935
0 0.339239 0.549737
0 0.346273 0.548852
0.214817 0.356298 0.546365
0.386313 0.365805 0.55938
0.557931 0.375402 0.539086
0.711131 0.387152 0.519448
0.874495 0.390936 0.505074
1 0.390143 0.488289
0 0.487282 0.534173
0 0.490364 0.53225
0.121111 0.495064 0.528954
0.306218 0.501167 0.523659
0.464836 0.507713 0.516121
0.618997 0.513481 0.506203
0.772641 0.517555 0.494041
0.925856 0.519371 0.480064
1 0.518807 0.464714
0 0.640803 0.501854
0.104784 0.642237 0.499901
0.253941 0.644358 0.496437
0.395651 0.647074 0.490974
0.536858 0.649851 0.483391
0.671809 0.650477 0.512215
0.819471 0.653788 0.468299
0.96585 0.653361 0.451606
1 0.652049 0.439246
0.163134 0.787228 0.465217
0.246494 0.787732 0.463371
0.348486 0.788388 0.460258
0.466453 0.789151 0.455512
0.593317 0.789593 0.4495
0.729564 0.781826 0.504463
0.840314 0.78677 0.508034
0.974487 0.789364 0.45919
1 0.786755 0.426261
0.264088 0.925917 0.432166
0.325063 0.925872 0.430793
0.408377 0.925734 0.428672
0.512657 0.925261 0.425132
0.627344 0.924559 0.421836
0.75584 0.918166 0.44889
0.874388 0.911177 0.519997
0.979965 0.916152 0.51545
1 0.919753 0.472862
0.312734 1 0.408042
0.365667 1 0.406958
0.440726 1 0.405188
0.53753 1 0.402518
0.647425 1 0.398978
0.76846 1 0.403662
0.901671 1 0.482109
1 1 0.527962
1 1 0.520394
0 0 0.665385
0 0 0.681376
0.0429084 0 0.715297
0.195926 0 0.758358
0.342443 0 0.779522
0.500069 0.0180972 0.780011
0.660014 0.0419165 0.745251
0.793103 0.0673838 0.676997
0.952209 0.0623178 0.644068
0 0.0675364 0.656291
0 0.0731823 0.663691
0 0.0834058 0.681208
0.16669 0.0948959 0.725521
0.33167 0.106935 0.760632
0.505348 0.120302 0.76437
0.673396 0.138872 0.723674
0.806851 0.162829 0.660624
0.971313 0.161578 0.637308
0 0.196902 0.664179
0 0.202045 0.665782
0 0.21062 0.669688
0.164187 0.222049 0.689509
0.341711 0.229709 0.730953
0.532692 0.235172 0.739467
0.695491 0.252842 0.686992
0.835019 0.270741 0.643442
1 0.269749 0.628016
0 0.336736 0.668727
0 0.341161 0.66833
0 0.348272 0.667185
0.219409 0.358282 0.667002
0.394125 0.366445 0.688518
0.58555 0.36701 0.698848
0.725078 0.385977 0.643427
0.880201 0.39202 0.627619
1 0.39147 0.614206
0 0.490486 0.653452
0 0.49337 0.651728
0.134508 0.497826 0.648905
0.315267 0.503609 0.644358
0.472023 0.509697 0.640528
0.636332 0.510964 0.640696
0.776364 0.519615 0.619562
0.928191 0.521324 0.608637
1 0.520623 0.596597
0 0.642954 0.626108
0.122683 0.644297 0.624475
0.264973 0.64622 0.621759
0.404181 0.648692 0.617502
0.543587 0.651331 0.611643
0.682887 0.65362 0.607614
0.827008 0.654505 0.595666
0.968917 0.654505 0.586389
1 0.653147 0.576959
0.177295 0.788434 0.596719
0.257435 0.78883 0.595346
0.35639 0.789487 0.593042
0.472816 0.790158 0.589441
0.597864 0.790677 0.584588
0.731792 0.78732 0.600381
0.847654 0.789868 0.610697
0.98967 0.789059 0.571115
1 0.786572 0.5608
0.272175 0.926421 0.571481
0.331411 0.92639 0.570504
0.413489 0.926253 0.568917
0.51606 0.925872 0.566415
0.629709 0.925185 0.563668
0.751369 0.92369 0.562158
0.878202 0.914534 0.630686
0.98497 0.919264 0.625803
1 0.920821 0.578485
0.31841 1 0.553521
0.37023 1 0.552666
0.444846 1 0.551278
0.54081 1 0.549218
0.649989 1 0.54641
0.7673 1 0.543008
0.898985 1 0.581567
1 1 0.645838
1 1 0.638132
0 0 0.79472
0 0 0.80885
0 0 0.838651
0.165423 0 0.890455
0.332769 0 0.920272
0.504616 0.00553903 0.926406
0.68751 0.0231022 0.905257
0.843854 0.0422827 0.837186
0.981201 0.0474861 0.776455
0 0.0558022 0.784039
0 0.0625162 0.79118
0 0.0738384 0.808087
0.146807 0.0878767 0.853849
0.327642 0.100984 0.895521
0.51252 0.113619 0.907378
0.70341 0.12517 0.884565
0.852934 0.14551 0.812985
0.991775 0.154406 0.764309
0 0.195163 0.786587
0 0.200702 0.78822
0 0.209781 0.793149
0.158404 0.221118 0.817548
0.346639 0.22887 0.861708
0.542916 0.23299 0.880552
0.733852 0.239887 0.852613
0.868345 0.261479 0.782269
1 0.268528 0.7514
0 0.33991 0.788586
0 0.344381 0.787961
0 0.351446 0.786679
0.227405 0.360983 0.791623
0.405173 0.367727 0.81944
0.595956 0.366613 0.842283
0.769253 0.372915 0.805585
0.893919 0.39115 0.753429
1 0.392767 0.738766
0 0.494453 0.773754
0 0.497139 0.772259
0.151843 0.501259 0.769772
0.327001 0.506554 0.76611
0.480934 0.511604 0.771618
0.651225 0.507958 0.795804
0.79411 0.517494 0.751553
0.93283 0.523323 0.734432
1 0.522713 0.724895
0.0043183 0.645624 0.750164
0.143603 0.646876 0.748821
0.278126 0.6486 0.746471
0.413962 0.650874 0.74284
0.551751 0.653208 0.738003
0.695888 0.652338 0.745876
0.830121 0.656641 0.725078
0.970581 0.656504 0.717922
1 0.65507 0.710506
0.193301 0.78999 0.72575
0.269871 0.790311 0.724666
0.366293 0.790799 0.722881
0.480629 0.791333 0.720195
0.603952 0.79176 0.716564
0.731929 0.791821 0.711971
0.861555 0.791287 0.709575
0.995041 0.789548 0.702037
1 0.787488 0.697673
0.281483 0.927031 0.705821
0.34049 0.926879 0.704616
0.420066 0.926757 0.703777
0.5205 0.926421 0.702296
0.633066 0.92578 0.700053
0.753246 0.924773 0.697185
0.881712 0.918349 0.733715
0.99237 0.922057 0.727306
1 0.920607 0.690639
0.325246 1 0.69163
0.376425 1 0.691005
0.449928 1 0.689952
0.544823 1 0.688289
0.652979 1 0.685908
0.76994 1 0.683055
0.894011 1 0.68542
1 1 0.755611
1 1 0.745769
0 0 0.923201
0 0 0.935699
0 0 0.962921
0.135454 0 1
0.327001 0 1
0.512917 0 1
0.709606 0.00836194 1
0.891203 0.0185855 1
1 0.0263828 0.928328
0 0.0455177 0.911467
0 0.0533455 0.918303
0 0.0660563 0.934966
0.129549 0.0816815 0.983001
0.328679 0.0958572 1
0.524086 0.108186 1
0.724971 0.116594 1
0.901823 0.126711 0.982025
1 0.140902 0.909361
0 0.195148 0.909621
0 0.201038 0.911498
0 0.210483 0.917647
0.158282 0.221622 0.946929
0.357198 0.229007 0.993729
0.556222 0.231998 1
0.755962 0.234272 1
0.918196 0.245472 0.949157
1 0.261372 0.887694
0 0.344701 0.908858
0 0.34905 0.908186
0 0.355825 0.907713
0.24036 0.364462 0.919219
0.41944 0.36968 0.951873
0.607721 0.367376 0.981826
0.795514 0.366049 0.968078
0.935485 0.379858 0.907057
1 0.391638 0.866758
0 0.499123 0.894713
0 0.501579 0.893462
0.172641 0.505302 0.891249
0.340032 0.510124 0.890898
0.491981 0.513726 0.904738
0.659297 0.509209 0.937118
0.83241 0.505989 0.922896
0.95169 0.520745 0.867994
1 0.524468 0.851453
0.0371557 0.648768 0.874189
0.166537 0.649912 0.872984
0.292973 0.651438 0.871
0.425452 0.653407 0.867933
0.560082 0.655558 0.865415
0.70135 0.653529 0.886366
0.856977 0.649943 0.874907
0.97409 0.658488 0.845945
1 0.657328 0.840208
0.210803 0.791867 0.853452
0.283619 0.792111 0.852567
0.376745 0.792538 0.851072
0.488914 0.792935 0.848814
0.610712 0.793133 0.845914
0.73727 0.793027 0.842451
0.865812 0.792508 0.83856
0.995361 0.791196 0.835065
1 0.789181 0.831449
0.291646 0.92784 0.837049
0.347799 0.927733 0.836637
0.42652 0.927474 0.835981
0.525734 0.927047 0.834867
0.637537 0.92636 0.833219
0.756436 0.925536 0.830976
0.880812 0.924132 0.828885
1 0.923018 0.827405
1 0.920897 0.820829
0.333013 1 0.825772
0.383642 1 0.825299
0.455879 1 0.824521
0.550011 1 0.82327
0.657282 1 0.821424
0.772931 1 0.818998
0.894606 1 0.815976
1 1 0.860594
1 1 0.845838
0 0 1
0 0 1
0 0 1
0.10956 0 1
0.327962 0 1
0.527428 0 1
0.731975 0 1
0.927657 0.000595102 1
1 0.00332647 1
0 0.038468 1
0 0.0472267 1
0 0.0611429 1
0.119799 0.0779126 1
0.336782 0.0927291 1
0.540719 0.104356 1
0.746303 0.110597 1
0.937484 0.113756 1
1 0.122332 1
0 0.197635 1
0 0.20383 1
0 0.213367 1
0.168246 0.224002 1
0.373053 0.230259 1
0.573434 0.232258 1
0.773938 0.231952 1
0.95581 0.233951 1
1 0.24715 1
0 0.350927 1
0 0.355001 1
0.024094 0.361486 1
0.259022 0.368795 1
0.436576 0.372137 1
0.621515 0.368963 1
0.810239 0.364904 1
0.97821 0.367025 1
1 0.382208 1
0 0.504387 1
0 0.506554 1
0.196506 0.509896 1
0.355093 0.514 1
0.505211 0.516075 1
0.66923 0.51107 1
0.845426 0.504265 1
0.997177 0.50695 1
1 0.520928 0.987945
0.077348 0.652277 0.998276
0.191546 0.653269 0.997223
0.309819 0.654627 0.995453
0.437812 0.656382 0.993317
0.568933 0.657938 0.996963
0.708751 0.654948 1
0.871183 0.646097 1
1 0.649775 0.999023
1 0.658152 0.969543
0.23003 0.793942 0.980453
0.298253 0.794186 0.979736
0.388434 0.794476 0.978408
0.4981 0.794705 0.976577
0.617426 0.794827 0.974151
0.74136 0.794522 0.974823
0.880903 0.787411 0.998917
1 0.789914 0.970245
1 0.791074 0.961425
0.301411 0.928832 0.967208
0.355947 0.928695 0.966842
0.433219 0.928405 0.966247
0.531609 0.927886 0.965209
0.64242 0.927214 0.963836
0.7608 0.926299 0.962036
0.883772 0.925216 0.959747
1 0.924056 0.957
1 0.922332 0.953964
0.341894 1 0.957443
0.39147 1 0.957092
0.462928 1 0.956436
0.555474 1 0.955459
0.662226 1 0.95407
0.777432 1 0.952193
0.897856 1 0.949722
1 1 0.957183
1 1 0.94641
